X: 2
T: Reel du Brae
I: RJ R-124 A Dor reel
M: C|
R: reel
K: Ador
|:\
"Am"A,B,CD EA,A,G, | A,B,CD EA,A,D |\
[1,3 "Em"EFGA BG"D"Ad | "G"BGdG eGdG :|\
[2,4 "Em"EFGA BA"C"Gc | "G"BAGB "Am"A2A2 :|
|:\
"Am"eaab agea | gabg abef |\
[1,3 "G"gage degd | egdB cABG :|\
[2,4 "C"gage "G"dBGB | "(Em)"cABG "Am"A2AA :|
% text Roaring Jelly  R-125


